!!!!SEGMENT: pl-wtm--a-40-546-94_joteyko-tadeusz--modlitwa-jadwigi-krolu-bolesci.krn
!!!cenid: 19xx:115
!!!COM: Joteyko, Tadeusz
!!!COM-rismID: pe50046072
!!!CDT: 1872-1932
!!!CNT: Polish
!!!OTL: Modlitwa Jadwigi/Królu boleści
!!!PDT: 1928
!!!AGN: Secular; Song
!!!YEC: Copyright 2022 Narodowy Instytut Fryderyka Chopina (https://polishscores.org)
!!!YEM: License CC-BY-4.0 (https://creativecommons.org/licenses/by/4.0)
!!!SMS-siglum: PL-Wtm
!!!SMS-shelfmark: A-40.546/94
!!!SMS-variant:
!!!SMS-altvar:
!!!SMS-shelfwork: W
!!!NIFC-rismSourceID: 1001157875
!!!NIFC-rismChildID: 1001157875
!!!NIFC-islandoraID: pl-wtm:4196
!!!URL-pdf-islandora: https://repozytorium.nifc.pl/islandora/object/pl-wtm%3A4196/datastream/PDF/view
!!!URL-scan: https://polish.musicsources.pl/pl/lokalizacje/galeria/druki-muzyczne/15686/2 @EN{Scan on Polish Music Sources Website} @PL{Skany w portalu Dziedzictwo Muzyki Polskiej w otwartym dostępie}
!!!IIIF:
!!!ONB-nifc:
!!!AIN: 1 canto 1 organ 1 piano
!!!key: F
**kern	**kern	**dynam	**kern	**text
*part2	*part2	*part2	*part1	*part1
*staff3	*staff2	*staff2/3	*staff1	*staff1
*group2	*group2	*	*group1	*
*IGacmp	*IGacmp	*	*IGsolo	*
*ICklav	*ICklav	*	*ICvox	*
*Ipiano|Iorgan	*Ipiano|Iorgan	*	*Icanto	*
*I"ORGAN lub FORTEPIAN.	*I"ORGAN lub FORTEPIAN.	*	*I"ŚPIEW.	*
*I'	*I'	*	*I'	*
*clefF4	*clefG2	*	*clefG2	*
*k[b-]	*k[b-]	*	*k[b-]	*
*F:	*F:	*	*F:	*
*M4/4	*M4/4	*	*M4/4	*
*met(c)	*met(c)	*	*met(c)	*
=1	=1	=1	=1	=1
!!LO:TX:a:B:t=Andante religioso.
1r	[1g	pp	1r	.
=2	=2	=2	=2	=2
*	*^	*	*	*
(1e-X	(2.a/	1g]	<	1r	.
.	4a~/	.	[	.	.
=3	=3	=3	=3	=3	=3
1d	2a/	1f#X	.	1r	.
.	4a~/	.	.	.	.
.	4a~/)	.	.	.	.
.	.	.	>	.	.
*	*v	*v	*	*	*
=4	=4	=4	=4	=4
1c#X;)	1a 1fn;	]]	1r;	.
=5	=5	=5	=5	=5
(2d\	(1a 1f (1d	pp	2a/	Kró-
2cn\	.	.	4a/	-lu
.	.	.	4a/	bo-
=6	=6	=6	=6	=6
2B-\	1b- 1f 1d	.	2b-\	-le-
4A\	.	.	2b-\	-ści,
4G\	.	.	.	.
!!LO:LB:g=original
=7	=7	=7	=7	=7
*^	*^	*	*	*
2A/	1F	2cc/	1f	<	4cc\	Chry-
.	.	.	.	.	4cc\	-ste
4.G/	.	4.b-/	.	[	4.b-\	Go-
8A/	.	8cc/	.	.	8cc\	-spo-
*v	*v	*	*	*	*	*
*	*v	*v	*	*	*
=8	=8	=8	=8	=8
[2B-\	1dd 1b- 1f))	.	2dd\	-dy-
8B-\L]	.	.	2dd\	-nie!
8A\	.	>	.	.
8B-\	.	.	.	.
8A\J)	.	]]	.	.
=9	=9	=9	=9	=9
(<4G\	(<2.ee-X 2.b- &(>2.g\	.	2.ee-X\	wej-
4B-\	.	.	.	.
4c\	.	.	.	.
4d\	4dd 4b- 4g\	.	4dd\	-rzyj
=10	=10	=10	=10	=10
4A\	2cc 2a 2e/	.	(2cc\	na_
8C/L	.	.	.	.
8D/J	.	.	.	.
4E\	4b- 4g 4d/	.	4b-\)	.
4F\	4a 4f 4d/	<	4a/	mnie
=11	=11	=11	=11	=11
*^	*^	*	*	*
(4A/	2BBn\	2a/	2f 2d\	.	4a/	mi-
8D/L	.	.	.	[	4a/	-ło-
8F/J	.	.	.	.	.	.
2B-X/	2C\	4a/	2e\	.	4a/	-sier-
.	.	4g/	.	.	4g/	-nie
!!LO:LB:g=original
=12	=12	=12	=12	=12	=12	=12
4G/	2C#X\	1b-)	2e\	>	2b-\	z krzy-
8F#X/L	.	.	.	.	.	.
8G/J	.	.	.	.	.	.
2G/)	2D\)	.	4f\	.	2b-\	-ża,
.	.	.	4e\&)	]	.	.
=13	=13	=13	=13	=13	=13	=13
(2A/	(1E-X	(2cc/	(4g\	.	2cc\	do-
.	.	.	8f#X\L	<	.	.
.	.	.	8g\J	.	.	.
4B-/	.	2cc#X/	2g\	.	4.cc#X\	-daj
8A/L	.	.	.	.	.	.
8B-/J	.	.	.	[	8cc#\	mi
=14	=14	=14	=14	=14	=14	=14
4B-/	[2D\	1dd)	2.f#X\	.	2dd\	si-
4A/	.	.	.	.	.	.
4F#X/	8D\L]	.	.	>	2a/	-ły,
.	8C\	.	.	.	.	.
8G/L	8BB-\	.	8e\L	.	.	.
8A/J)	8AA\J)	.	8f#\J)	]]	.	.
*	*	*v	*v	*	*	*
=15	=15	=15	=15	=15	=15
(4e-X/	(2G\	(2b- 2g/	<	2b-\	we-
8d/L	.	.	.	.	.
8B-/J	.	.	.	.	.
4B-/	2F\	4cc 4e-X/	.	4cc\	-sprzyj
4A/	.	4dd 4d/	[	4dd\	na-
=16	=16	=16	=16	=16	=16
4c/	2E-X\	2ee-X 2g\	.	2ee-X\	-dzie-
4B-/	.	.	.	.	.
2c/)	4A-X\	2cc 2e-X/)	.	2cc\	-ją,
.	4G\)	.	.	.	.
!!LO:PB:g=original
=17	=17	=17	=17	=17	=17
*	*	*^	*	*	*
!	!	!	!	!LO:DY:rj	!	!
(2d/	(1F	(2ff 2cc/	(4a-X\	mf	2ff\	a
.	.	.	8g\L	.	.	.
.	.	.	8a-\J	.	.	.
4e-X/	.	4ee-X 4cc 4a-\	2ryy	.	4ee-X\	u-
4d/	.	4dd 4cc 4a-\	.	.	4dd\	-drę-
*	*	*v	*v	*	*	*
=18	=18	=18	=18	=18	=18
4d/	1F#X)	1dd 1cc 1an))	.	2dd\	-cze-
8A/L	.	.	.	.	.
8B-/J	.	.	.	.	.
4c/	.	.	.	2a/	-niom
4A/)	.	.	.	.	.
=19	=19	=19	=19	=19	=19
*	*	*^	*	*	*
(2d/	(4G\	(>4dd 4b- 4g/	2ryy	.	4b-\	racz
.	4G#X\	4b- 4f/	.	.	4b-\	po-
2c#X/	2A\	4.b-/	2e\	>	4.b-\	-ło-
.	.	8a/	.	.	8a/	-żyć
*v	*v	*	*	*	*	*
*	*v	*v	*	*	*
=20	=20	=20	=20	=20
[>2D/))	2a 2f 2d/)	.	2d/	kres!
(8D/L]	2r	.	2r	.
8Cn/	.	.	.	.
8BB-/	.	.	.	.
8AA/J)	.	]]	.	.
=21	=21	=21	=21	=21
(2C/	(<2e-X 2c (>2G/	pp	2e-X/	Ty
4BB-/	4e- 4c 4G/	.	4e-/	mnie
4AA/	4f 4c 4F/	.	4f/	od
=22	=22	=22	=22	=22
*	*^	*	*	*
2BB-/	1f) 1d	4F\	.	2.f/	nóg
.	.	4G\	.	.	.
2AA-X/)	.	4c-X\	.	.	.
.	.	4B-\)	.	4f/	Twych
!!LO:LB:g=original
=23	=23	=23	=23	=23	=23
(2GG/	(2.g 2.Bn/	(4f\	<	4g/	nie
.	.	4e-X\	.	4g/	od-
4FF/	.	4d\	.	4g/	-trą-
4EE-X/	4a 4A/	4c#X\	[	4a/	-caj,
=24	=24	=24	=24	=24	=24
2DD/	1a 1A)	4g\	.	2a/	Pa-
.	.	4f\	.	.	.
4C/	.	4e\	.	4a/	-nie,
4BBn/)	.	4d#X\)	.	4a/	a
=25	=25	=25	=25	=25	=25
*^	*	*	*	*	*
(2G/	(2BB-X\	(2dd 2dn/	(4a\	mf	(2dd\	li-
.	.	.	8g\L	.	.	.
.	.	.	8f\J	.	.	.
4G/	2C\	4.cc/	2e\	.	4.cc\)	.
8G#X/L	.	.	.	.	.	.
8d/J)	.	8b-/	.	.	8b-\	-tość
*v	*v	*	*	*	*	*
=26	=26	=26	=26	=26	=26
2FF/	2a 2c/	4e\	.	2a/	Swo-
.	.	4e-X\	.	.	.
2BB-/)	2b- 2B-/)	4d\	.	2b-\	-ją
.	.	4d-X\)	.	.	.
=27	=27	=27	=27	=27	=27
*^	*	*	*	*	*
8r	((1GG	(2b-/	(1en 1c	.	4b-\	mnie
4C/	.	.	.	.	.	.
.	.	.	.	.	4b-\	o-
4C/	.	.	.	.	.	.
.	.	4.a/	.	.	4.a/	-ka-
4C/	.	.	.	.	.	.
8C/	.	8b-/	.	.	8b-/	-zać
!!LO:LB:g=original
=28	=28	=28	=28	=28	=28	=28
2C 2FF/)	2ryy	1cc)	4b-\	<	2.cc\	chciej!
.	.	.	4a\	.	.	.
(4B-/	2F\	.	4g\	.	.	.
4A/)	.	.	4f\)	[	8r	.
.	.	.	.	.	8cc\	Ja
=29	=29	=29	=29	=29	=29	=29
8Bn/	(1F	(2dd/	(1g	mf	2dd\	zaś
4B/	.	.	.	.	.	.
4B/	.	.	.	.	.	.
.	.	2dd#X/	.	.	4.dd#X\	przed
4B/	.	.	.	.	.	.
[8B/L	.	.	.	.	8dd#\	Twe
=30	=30	=30	=30	=30	=30	=30
8B/J]	1E)	2ee/	1g#X)	.	2ee\	o-
4c^/	.	.	.	.	.	.
4Bn/	.	.	.	>	.	.
.	.	2bn/)	.	.	4.bn\	-czy,
4B/	.	.	.	.	.	.
8B/	.	.	.	]]	8b\	przed
=31	=31	=31	=31	=31	=31	=31
(4A/	(2AA\	(<2cc 2a (>2e/	2ryy	<	2cc\	Two-
8G/L	.	.	.	.	.	.
8F/J	.	.	.	.	.	.
2E/)	2GG\	4dd/	2b-X 2e\	.	4dd\	-je
.	.	4ee/	.	.	4ee\	o-
=32	=32	=32	=32	=32	=32	=32
8D/	2FF\)	2ff/	2a 2f\	.	2ff\	-bli-
4E^/	.	.	.	.	.	.
4D/	.	.	.	.	.	.
.	(4BB-\	2dd/)	8a\L	[	2dd\	-cze
4D/	.	.	8g\J	.	.	.
.	4AA\	.	4f\)	.	.	.
[8D/L	.	.	.	.	.	.
=33	=33	=33	=33	=33	=33	=33
*	*	*	*^	*	*	*
8D/J]	1GG	(2gg/	(2e\	1b-	f	2gg\	kła-
4D/	.	.	.	.	.	.	.
4D/	.	.	.	.	.	.	.
.	.	4ff/	4f\	.	.	4ff\	-dę
4D/	.	.	.	.	.	.	.
.	.	4ee/	4e\	.	.	4ee\	łzy
8D/	.	.	.	.	.	.	.
*	*	*	*v	*v	*	*	*
!!LO:LB:g=original
=34	=34	=34	=34	=34	=34	=34
8rA	2GG#X\	2ee 2bn 2e/	2ryy	.	2ee\	mo-
4E/	.	.	.	.	.	.
4E/	.	.	.	.	.	.
.	2AA\)	2cc 2e/)	4b\	.	4.cc\	-je
4E/	.	.	.	.	.	.
.	.	.	4a\)	.	.	.
[8E/L	.	.	.	.	8cc\	i
=35	=35	=35	=35	=35	=35	=35
8E/J]	2BB-\	(4cc/	2g 2d\	>	(4cc\	ser-
4E/	.	.	.	.	.	.
.	.	4b-/	.	.	4b-\)	.
4E/	.	.	.	.	.	.
.	2C\	4a/	2e 2B-\	.	4a/	-ce
4G/	.	.	.	.	.	.
.	.	4g/	.	]	4g/	i
8G/	.	.	.	.	.	.
*v	*v	*	*	*	*	*
*	*v	*v	*	*	*
=36	=36	=36	=36	=36
8A 8F\	[2f/	p	1f	ży-
4c 4A 4F\	.	.	.	.
8d 8c 8A 8F\	.	.	.	.
[2F\	8f/])	.	.	.
.	4f 4d 4c 4A/	.	.	.
.	[8a [8f [8d [8c/	.	.	.
=37	=37	=37	=37	=37
4F\]	8a] 8f] 8d] 8c/]	.	1f	-cie!
.	4cc 4a 4f 4d/	>	.	.
4r	.	.	.	.
.	4dd 4cc 4a 4f/	.	.	.
2r	.	.	.	.
.	4ff 4dd 4cc 4a\	.	.	.
.	8aa 8ff 8dd 8cc\	]]	.	.
=38	=38	=38	=38	=38
1A 1C 1FF	1ccc 1aa 1ff 1cc	pp	1r	.
=39	=39	=39	=39	=39
1C 1FF;	1f 1c 1A;	.	1r;	.
==	==	==	==	==
*-	*-	*-	*-	*-
!!!system-decoration: g1{(g2)}
!!!RDF**kern: i = editorial accidental
!!!RDF**kern: > = above
!!!RDF**kern: < = below
!!!RDF**kern: N = linked
!!!RDF**dynam: > = "dim.", fontstyle= "italic"
!!!ENC: Andrzej Gręziak
!!!EED: Katarzyna Serwa
!!!END: 2023-10-03
!!!EEV: 2023-10-20
